icons/hotjar.svg

<?xml version="1.0" encoding="UTF-8"?>
<svg width="512px" height="246px" viewBox="0 0 512 246" version="1.1" xmlns="http://www.w3.org/2000/svg" xmlns:xlink="http://www.w3.org/1999/xlink" preserveAspectRatio="xMidYMid">
    <g>
        <path d="M321.379536,94.3043929 C327.5403,94.3043929 330.508922,97.245075 330.508922,103.384884 L330.508922,103.384884 L330.508922,207.901337 C330.508922,234.800546 310.846166,245.487585 290.366166,245.487585 C283.024939,245.487585 278.449768,242.518963 278.449768,236.588704 L278.449768,236.588704 L278.449768,227.508213 C278.449768,223.156562 280.237926,219.377681 287.397544,218.581392 C293.153179,217.994652 298.929768,214.823465 298.929768,205.540409 L298.929768,205.540409 L298.929768,103.384884 C298.929768,97.26603 301.89839,94.3043929 308.059154,94.3043929 L308.059154,94.3043929 Z M152.608131,91.5173806 C189.35618,91.5173806 199.30281,112.9194 199.30281,143.786085 C199.30281,174.652769 189.35618,196.026849 152.608131,196.026849 C115.839127,196.026849 105.892497,174.673724 105.892497,143.786085 C105.892497,112.898445 115.860082,91.5173806 152.608131,91.5173806 Z M389.238745,91.5173806 C425.01588,91.5173806 431.763383,106.758636 431.763383,128.929004 L431.763383,128.929004 L431.763383,184.20824 C431.763383,190.320109 428.794761,193.288731 422.633997,193.288731 L422.633997,193.288731 L418.443001,193.288731 C413.483656,193.288731 411.688513,191.703138 409.11105,187.148922 L409.11105,187.148922 L408.314761,185.751924 C401.155143,192.066357 391.026903,196.026849 379.11749,196.026849 C353.873724,196.026849 345.331078,179.40955 345.331078,164.552469 C345.331078,137.827885 365.000819,133.888349 382.868431,132.100191 L382.868431,132.100191 L400.973533,130.312033 L400.973533,123.969659 C400.973533,119.415443 397.781392,117.068486 389.238745,117.068486 C378.71236,117.068486 366.795962,120.211733 364.001965,120.819427 C356.046057,122.579645 351.498827,117.850805 351.498827,111.892606 L351.498827,111.892606 L351.498827,106.549086 C351.498827,100.262592 354.670014,97.245075 358.630505,96.0715962 C368.569716,93.1280013 378.873097,91.594956 389.238745,91.5173806 Z M240.75176,69.5775171 C249.091842,67.3981992 252.668158,71.5403001 252.668158,77.6801091 L252.668158,77.6801091 L252.668158,94.3043929 L268.181828,94.3043929 C274.342592,94.3043929 277.339154,97.245075 277.339154,103.384884 L277.339154,103.384884 L277.339154,111.536371 C277.339154,117.655225 274.342592,120.616862 268.181828,120.616862 L268.181828,120.616862 L252.682128,120.616862 L252.682128,158.391705 C252.682128,166.117108 255.67869,170.489714 265.799945,170.489714 L265.799945,170.489714 L267.797653,170.489714 C272.351869,170.489714 276.3403,173.63296 276.3403,178.79487 L276.3403,178.79487 L276.3403,185.318854 C276.466566,190.189942 272.987456,194.410745 268.181828,195.216589 C265.238321,195.764641 262.249012,196.028954 259.255007,196.005894 C231.028649,196.005894 220.900409,184.32 220.900409,160.976153 L220.900409,160.976153 L220.900409,120.595907 L213.154052,120.595907 C206.986303,120.595907 203.996726,117.655225 203.996726,111.515416 L203.996726,111.515416 L203.996726,106.961201 C203.996726,101.848186 206.196999,99.2427831 211.945648,97.6571896 L211.945648,97.6571896 L220.900409,95.275307 L220.886439,82.2343247 C220.886439,76.5275853 223.261337,74.3273124 230.420955,72.3365894 L230.420955,72.3365894 Z M22.6802729,44.8227012 C28.8410368,44.8227012 31.8306139,47.7703683 31.8306139,53.9031924 L31.8306139,53.9031924 L31.8306139,97.8597544 C39.7781676,93.6141498 48.6650004,91.4332736 57.6750887,91.5173806 C84.7000273,91.5173806 92.4533697,105.759782 92.4533697,124.758963 L92.4533697,124.758963 L92.4533697,184.16633 C92.4533697,190.278199 89.4568076,193.246821 83.2960437,193.246821 L83.2960437,193.246821 L69.7591269,193.246821 C63.5983629,193.246821 60.6087858,190.299154 60.6087858,184.16633 L60.6087858,184.16633 L60.6087858,129.515744 C60.6087858,122.202456 58.0243383,117.243111 49.4816917,117.243111 C43.2307296,117.328005 37.1211128,119.115008 31.8096589,122.412005 L31.8096589,122.412005 L31.8096589,184.16633 C31.8096589,190.278199 28.8200819,193.246821 22.6593179,193.246821 L22.6593179,193.246821 L9.15732606,193.246821 C2.99656207,193.246821 0,190.299154 0,184.16633 L0,184.16633 L0,53.9031924 C0,47.7913233 2.99656207,44.8227012 9.15732606,44.8227012 L9.15732606,44.8227012 Z M499.741337,91.5034106 C508.682128,91.5034106 511.476126,94.8771623 511.476126,100.402292 L511.476126,100.402292 L511.476126,108.588704 C511.476126,114.498008 508.116344,117.669195 502.528349,117.669195 C491.401255,117.669195 482.271869,121.015007 479.694407,123.396889 L479.694407,123.396889 L479.694407,184.16633 C479.694407,190.278199 476.697844,193.246821 470.53708,193.246821 L470.53708,193.246821 L457.035089,193.246821 C450.874325,193.246821 447.877763,190.299154 447.877763,184.16633 L447.877763,184.16633 L447.877763,103.349959 C447.877763,97.231105 450.874325,94.2694679 457.035089,94.2694679 L457.035089,94.2694679 L461.994434,94.2694679 C467.547503,94.2694679 468.155198,96.4627558 470.949195,101.401146 C475.90854,96.6443656 488.230068,91.5034106 499.741337,91.5034106 Z M400.980518,147.544011 L387.660136,149.311214 C378.71236,150.512633 375.129059,154.857299 375.129059,162.582701 C375.129059,169.895989 379.913779,174.268595 386.661282,174.268595 C392.416917,174.268595 397.788377,172.683001 400.980518,169.511814 L400.980518,169.511814 L400.980518,147.544011 Z M152.608131,116.858936 C141.662647,116.858936 137.702156,123.990614 137.702156,143.786085 C137.702156,163.581555 141.683602,170.685293 152.608131,170.685293 C163.53266,170.685293 167.493151,163.60251 167.493151,143.786085 C167.493151,123.969659 163.53266,116.858936 152.608131,116.858936 Z" fill="#1D1D1B"></path>
        <path d="M343.906139,25.7746248 C332.220246,4.63105048 297.930914,0 297.930914,0 C297.930914,0 313.758909,17.6161528 293.530368,31.5581992 C280.747831,40.3523056 275.683711,51.7797544 281.159945,64.2619372 C285.350941,73.8243929 294.221883,77.7080491 303.791323,79.1679127 C301.332606,74.4390723 300.717926,67.607749 302.534025,60.6018008 C302.715634,59.9033015 302.918199,59.1698772 303.148704,58.5063029 C305.830941,62.6553888 310.231487,64.9255116 314.527258,63.8777626 C320.408622,62.480764 323.859209,55.3630559 322.25266,48.0497681 C321.885587,46.4634854 321.29032,44.938848 320.485457,43.5234925 C320.715962,43.5793724 320.946467,43.6003274 321.183956,43.6771623 C328.525184,45.7726603 332.073561,56.7460846 329.111924,68.2014734 C328.234451,71.6711961 326.754435,74.9598566 324.739318,77.9175989 C337.340246,73.8593179 345.722237,63.6961528 348.027285,54.6436016 C350.458063,45.2208458 348.614025,34.2404366 343.906139,25.7746248 Z" fill="#FD3A5C"></path>
    </g>
</svg>

<svg xmlns="http://www.w3.org/2000/svg" viewBox="0 0 511.476 245.488">
  <path fill="#1d1d1b" d="M321.38 94.304c6.16 0 9.129 2.941 9.129 9.08v104.517c0 26.9-19.663 37.587-40.143 37.587-7.341 0-11.916-2.969-11.916-8.9v-9.08c0-4.351 1.788-8.13 8.948-8.927 5.755-.586 11.532-3.758 11.532-13.04V103.384c0-6.119 2.968-9.08 9.13-9.08zm-168.772-2.787c36.748 0 46.695 21.402 46.695 52.27 0 30.866-9.947 52.24-46.695 52.24-36.769 0-46.716-21.353-46.716-52.24 0-30.889 9.968-52.27 46.716-52.27zm236.63 0c35.778 0 42.525 15.242 42.525 37.412v55.28c0 6.111-2.968 9.08-9.129 9.08h-4.191c-4.96 0-6.754-1.586-9.332-6.14l-.796-1.397c-7.16 6.314-17.288 10.275-29.198 10.275-25.243 0-33.786-16.617-33.786-31.475 0-26.724 19.67-30.664 37.537-32.452l18.106-1.788v-6.342c0-4.555-3.193-6.902-11.735-6.902-10.527 0-22.443 3.144-25.237 3.751-7.956 1.76-12.503-2.968-12.503-8.926v-5.344c0-6.286 3.171-9.304 7.132-10.477a110.705 110.705 0 0 1 30.608-4.555zm-148.486-21.94c8.34-2.179 11.916 1.963 11.916 8.103v16.624h15.514c6.16 0 9.157 2.941 9.157 9.08v8.152c0 6.12-2.996 9.08-9.157 9.08h-15.5v37.776c0 7.725 2.997 12.098 13.118 12.098h1.998c4.554 0 8.542 3.143 8.542 8.305v6.524a9.779 9.779 0 0 1-8.158 9.898 46.8 46.8 0 0 1-8.927.789c-28.226 0-38.355-11.686-38.355-35.03v-40.38h-7.746c-6.168 0-9.157-2.94-9.157-9.08v-4.555c0-5.113 2.2-7.718 7.949-9.304l8.954-2.382-.014-13.04c0-5.707 2.375-7.908 9.535-9.898zM22.68 44.824c6.161 0 9.15 2.947 9.15 9.08V97.86a53.784 53.784 0 0 1 25.845-6.343c27.025 0 34.778 14.243 34.778 33.242v59.407c0 6.112-2.996 9.08-9.157 9.08H69.759c-6.16 0-9.15-2.947-9.15-9.08v-54.65c0-7.314-2.585-12.273-11.127-12.273a34.394 34.394 0 0 0-17.672 5.169v61.754c0 6.112-2.99 9.08-9.15 9.08H9.156c-6.16 0-9.157-2.947-9.157-9.08V53.903c0-6.112 2.997-9.08 9.157-9.08zm477.061 46.68c8.941 0 11.735 3.374 11.735 8.9v8.186c0 5.909-3.36 9.08-8.948 9.08-11.127 0-20.256 3.346-22.834 5.728v60.77c0 6.111-2.996 9.08-9.157 9.08h-13.502c-6.16 0-9.157-2.948-9.157-9.08V103.35c0-6.119 2.996-9.08 9.157-9.08h4.96c5.552 0 6.16 2.193 8.954 7.131 4.96-4.757 17.281-9.898 28.792-9.898zm-98.76 56.041-13.32 1.767c-8.949 1.202-12.532 5.546-12.532 13.272 0 7.313 4.785 11.686 11.532 11.686 5.756 0 11.127-1.586 14.32-4.757zm-248.373-30.685c-10.945 0-14.906 7.132-14.906 26.927 0 19.796 3.982 26.9 14.906 26.9 10.925 0 14.885-7.083 14.885-26.9 0-19.816-3.96-26.927-14.885-26.927z"/>
  <path fill="#fd3a5c" d="M343.906 25.775C332.22 4.63 297.931 0 297.931 0s15.828 17.616-4.4 31.558c-12.783 8.794-17.847 20.222-12.371 32.704 4.19 9.562 13.062 13.446 22.631 14.906-2.458-4.729-3.073-11.56-1.257-18.566.182-.699.384-1.432.615-2.096 2.682 4.15 7.082 6.42 11.378 5.372 5.882-1.397 9.332-8.515 7.726-15.828a16.834 16.834 0 0 0-1.768-4.527c.231.056.461.077.699.154 7.341 2.096 10.89 13.07 7.928 24.524a30.566 30.566 0 0 1-4.373 9.717c12.601-4.059 20.983-14.222 23.288-23.274 2.431-9.423.587-20.404-4.12-28.87z"/>
</svg>
